!!!Melodie: Jeus ist kommen, Grund ewiger Freude
!!!Typ: Lied
**kern	**silbe	**silbe	**silbe	**silbe	**silbe	**silbe	**silbe	**silbe	**silbe	**silbe	**silbe	**silbe
*clefG2	*lang:DE	*lang:DE	*lang:DE	*lang:DE	*lang:DE	*lang:DE	*lang:DE	*lang:DE	*lang:DE	*lang:DE	*lang:DE	*lang:DE
*k[b-,e-,a-]	*	*	*	*	*	*	*	*	*	*	*	*
*M3/4	*	*	*	*	*	*	*	*	*	*	*	*
4e-	Je#	wie	Je#	wenn	Je#	und	Je#	lass	Je#	wenn	Je#	so
4B-	#su,	sie	#su,	ich	#su,	mit	#su,	dein	#su,	kein	#su,	will
8Le-	hilf	ihr	hilf	die	hilf	dem	hilf	Ge#	hilf	Ver#	hilf	ich
8Jf	|	|	|	|	|	|	|	|	|	|	|	|
=	=	=	=	=	=	=	=	=	=	=	=	=
4.g	sie#	höl#	sie#	Last	sie#	Schei#	sie#	#bet	sie#	#mö#	sie#	e#
8f	#gen,	#lisch#	#gen.	der	#gen	#ne	#gen	mich	#gen.	#gen	#gen	#wig
4e-	du	#es	Wenn	Be#	und	der	im	un#	Wenn	zu	und	dir
=	=	=	=	=	=	=	=	=	=	=	=	=
4g	Für#	Heer	in	#gier#	lass	Wahr#	Wa#	#end#	al#	be#	lass	Lob
8La-	#ste	nicht	mir	#den	mich	#heit	#chen	#lich	#les	#ten	mir’s	und
8Jg	|	|	|	|	|	|	|	|	|	|	|	|
8Lf	des	ver#	die	emp#	nicht	sich	und	ver#	ver#	sich	ge#	Dank
8Je-	|	|	|	|	|	|	|	|	|	|	|	|
=	=	=	=	=	=	=	=	=	=	=	=	=
4b-	Le#	#ge#	Sün#	#fin#	sin#	schmin#	Be#	#tre#	#schwin#	fin#	#ling#	sing#
2b-	#bens;	#bens	#de,	#de,	#ken;	#ken,	#ten;	#ten,	#det	#det,	#en,	#en,
=	=	=	=	=	=	=	=	=	=	=	=	=
4b-	sieh,	mäch#	Ei#	und	wenn	lass	Hü#	der	und	wenn	dass	Je#
4b-	wie	#tig	#gen#	sich	sich	doch	#ter,	du	ich	ich	ich	#su,
4b-	die	auf#	#lieb’,	mein	die	viel	du	ver#	mein	vor	das	mein
=	=	=	=	=	=	=	=	=	=	=	=	=
4ee-	Fin#	#füh#	Hoff#	tie#	Kräf#	hel#	schläfst	#spro#	Nichts	Angst	Zei#	Hei#
4b-	#ster#	#ret,	#art	#fes	#te	#ler	ja	#chen	und	und	#chen	#land,
4g	#nis	mir	und	Ver#	der	dann	und	mein’	Ver#	vor	des	mit
=	=	=	=	=	=	=	=	=	=	=	=	=
4cc	drin#	schäd#	Miss#	#der#	Lü#	dei#	schlum#	Für#	#der#	Za#	Sie#	fro#
4b-	#get	#lich	#gunst	#ben	#gen	#ne	#merst	#sprach'	#ben	#gen	#ges	#hem
8La-	her#	zu	sich	dar#	auf#	Kraft	nicht	zu	nur	ver#	er#	Ge#
8Jg	|	|	|	|	|	|	|	|	|	|	|	|
=	=	=	=	=	=	=	=	=	=	=	=	=
2.f	#ein,	sein.	regt,	#legt:	#bläh'n	seh’n!	ein;	sein.	seh’,	#geh,	#lang';	#sang.
=:|	=	=	=	=	=	=	=	=	=	=	=	=
4f	.	Sa#	.	hilf	.	Steh’	.	Wenn	.	ach	.	Wie
4f	.	#tan,	.	mir,	.	mir	.	mich	.	Herr,	.	wird
4f	.	der	.	dass	.	zur	.	die	.	so	.	dein
=	=	=	=	=	=	=	=	=	=	=	=	=
4.d	.	sin#	.	ich	.	Rech#	.	Nacht	.	wollst	.	Na#
8c	.	#net	.	vor	.	#ten,	.	mit	.	du	.	#me
4B-	.	auf	.	mir	.	o	.	Er#	.	im	.	da
=	=	=	=	=	=	=	=	=	=	=	=	=
4a-	.	al#	.	selbst	.	Kö#	.	#mü#	.	Grun#	.	wer#
8Lb-	.	#ler#	.	mag	.	#nig	.	#dung	.	#de	.	#den
8Ja-	.	|	.	|	.	|	.	|	.	|	.	|
8Lg	.	#hand	.	er#	.	und	.	will	.	der	.	ge#
8Ja-	.	|	.	|	.	|	.	|	.	|	.	|
=	=	=	=	=	=	=	=	=	=	=	=	=
4f	.	Rän#	.	#rö#	.	Mei#	.	dek#	.	See#	.	#prie#
2f	.	#ke,	.	#ten	.	#ster!	.	#ken,	.	#len	.	#sen,
=	=	=	=	=	=	=	=	=	=	=	=	=
4e-	.	wie	.	und	.	Leh#	.	wollst	.	dich	.	wo
4g	.	er	.	durch	.	#re	.	du	.	mit	.	du,
4b-	.	mich	.	dein	.	mich	.	mich,	.	dem	.	O
=	=	=	=	=	=	=	=	=	=	=	=	=
4ee-	.	sich#	.	Lei#	.	kämp#	.	Je#	.	in#	.	Held,
4ee-	.	#te,	.	#den	.	#fen	.	#su,	.	#ner#	.	dich
4b-	.	ver#	.	mein	.	und	.	er#	.	#sten	.	so
=	=	=	=	=	=	=	=	=	=	=	=	=
4g	.	#stö#	.	sünd#	.	prü#	.	#mun#	.	Seuf#	.	mäch#
8La-	.	#re	.	#lich'	.	#fen	.	#tern	.	#zen	.	#tig
8Jg	.	|	.	|	.	|	.	|	.	|	.	|
8Lf-	.	und	.	Fleisch	.	die	.	und	.	ver#	.	er#
8Jg	.	|	.	|	.	|	.	|	.	|	.	|
=	=	=	=	=	=	=	=	=	=	=	=	=
4e-	.	krän#	.	tö#	.	Gei#	.	wek#	.	#mäh#	.	#wie#
2e-	.	#ke.	.	#ten.	.	#ster.	.	#ken.	.	#len.	.	#sen.
==	==	==	==	==	==	==	==	==	==	==	==	==
*-	*-	*-	*-	*-	*-	*-	*-	*-	*-	*-	*-	*-
